X:162
T:Miss Lucy Loo
M:C|
L:1/8
Q:1/4=100
K:F
d>dd2 c>AG2|A>AGG/F/ GcCC|F2G2 A2B2|c4 f4|
d>dd2 c>AG2|F>GA>F   D2CC|F>GA>B c>AF>G|A>AG>G F4||
